!!!SOCIAL_FUNCTION:	moccasin game songs
!!!PDT:	1932
!!!OTL: No_131_I_Will_Beat_You.krn
!!!REG: Wisconsin
!!!LANG: Non-Tone
!!!LING_GROUP: Algonquin
**kern
*staff1
=1-
*clefF4
*k[f#]
*M3/4
4r
4D\
12D\L
12D\
12d\J
=2!|:
8.A\L
16A\Jk
8.A\L
16E\Jk
12G\L
12G\
12E\J
=3
8.D\L
16D\Jk
8.D\L
16D\Jk
8r
16d\LL
16A\JJ
=4
8.G\L
16G\Jk
8.G\L
16D\Jk
12G\L
12G\
12E\J
=5
8.D\L
16D\Jk
8D\L
16D\Jk
16r
12D\L
12D\
12E\J
=6||
8.D\L
16D\Jk
8D\L
16D\Jk
16r
12D\L
12D\
12B\J
=7:|!
8.D\L
16D\Jk
8.D\L
16D\Jk
4r
==
*-
